X: 29
T: Walli's Humour in Tapping the Ale
%R: _
B: "A Collection of Original Scotch-Tunes", Henry Playford, 1700, ed. p.12 #29 (and top 3 staves on p.13)
F: http://imslp.org/wiki/A_Collection_of_Original_Scotch_Tunes_(Various)
Z: 2015 John Chambers <jc:trillian.mit.edu>
M: none
L: 1/8
K: F
% - - - - - - - - - - - - - - - - - - - - - - - - - - - - -
F2 |\
D4 D2CD | F4 F2AB | c2F2 (dcBA) | G4 G2AB |\
c2F2 cdcB | c2F2 F2fg | agfd cd fg | a2f2 f3F |
D4 D2CD | F4 F2fg | agfd cdcA | G4 G2Ac |\
d2f2 c2d2 | A2c2 G2A2 | F4 F2G2 | A3c A2GF |
D4 D2CD | F4 F2fg | agfd cdcA | G4 G2fg |\
agfd cdcA | c2F2 F2fg | a/g/a/g/ fd cd fg | a2f2 f3F |
D4 D2CD | F4 F2fg | a/g/a/g/ fd cdcA | G4 G2Ac |\
d2f2 c2d2 | A2c2 G2A2 | F4 F2fg | a2fe dc df |\
a2f2 f2 |]
% - - - - - - - - - - - - - - - - - - - - - - - - - - - - -

%%sep 1 1 500
%%sep 1 1 500

